X: 23762
T: Little Diamond, The
R: polka
M: 2/4
K: Dmajor
|:A>B AF|DF Ad|A2 AF|GF EF|
D>E FG|AB cd|e>d ce|d2 d2:|
|:f2 g>e|fd cB|Ad cd|fe e2|
f2 g>e|fd cB|ag ec|d2 d2:|

